svgs/ykb.svg

<svg xmlns="http://www.w3.org/2000/svg" viewBox="0 0 192 192"><path d="M57.89 132.694v-23.306l3.518.947c1.934.52 4.544.044 5.799-1.059 1.698-1.493 2.823-1.372 4.403.473 1.725 2.016 2.051 5.615 1.747 19.285l-.375 16.806-4.921-.211c-4.576-.195-4.921.161-4.921 5.08 0 4.059-.611 5.291-2.625 5.291-2.486 0-2.625-1.232-2.625-23.306Zm9.187-5.48c0-8.904-.44-11.957-1.641-11.399-1.016.472-1.789 5.103-2.031 12.161-.319 9.294-.016 11.399 1.64 11.399 1.628 0 2.032-2.416 2.032-12.161Zm-44.62 7.866c0-7.534-1.137-16.39-3.202-24.937l-3.203-13.255h3.9c2.318 0 4.149 1.124 4.515 2.771 2.015 9.08 2.279 9.316 3.614 3.233 1.084-4.939 1.982-6.004 5.065-6.004 2.061 0 3.747.782 3.747 1.738 0 .955-1.476 7.498-3.281 14.539-2.034 7.936-3.281 16.755-3.281 23.201 0 10.322-.029 10.398-3.937 10.398h-3.937Zm14.199 7.07c-2.121-6.552-.314-13.036 4.821-17.301 4.67-3.879 6.227-9.488 2.634-9.488-1.083 0-1.969 1.247-1.969 2.771 0 1.724-1.239 2.77-3.281 2.77-3.765 0-4.332-3.798-1.22-8.177 3.284-4.623 8.088-5.501 11.729-2.143 3.081 2.842 3.271 3.971 3.271 19.467V146.5h-7.289c-6.381 0-7.464-.542-8.696-4.35Zm9.423-7.393c0-3.556-.579-6.466-1.287-6.466-1.627 0-3.183 8.375-2.04 10.979 1.732 3.944 3.327 1.78 3.327-4.513Zm32.808-6.466c0-17.24.175-18.472 2.625-18.472s2.625 1.232 2.625 18.472c0 17.241-.175 18.473-2.625 18.473s-2.625-1.232-2.625-18.473Zm10.499-6.465V96.888h3.206c2.828 0 3.255.923 3.634 7.851l.43 7.851 2.413-7.851c1.875-6.101 3.113-7.851 5.551-7.851 3.821 0 3.901 1.739.514 11.084-3.254 8.979-3.274 12.193-.14 22.394 4.564 14.853 4.657 16.398.993 16.398-2.655 0-3.679-1.543-5.516-8.313-1.24-4.572-2.765-8.312-3.389-8.312-.624 0-1.134 3.74-1.134 8.312 0 7.635-.268 8.313-3.281 8.313h-3.281Zm23.622 6.235v-18.704l3.886 1.094c2.138.602 4.239.29 4.671-.692 1.47-3.35 3.254-1.798 3.254 2.831 0 2.54-.548 4.618-1.219 4.618-3.459 0-5.343 6.234-5.343 17.681 0 10.643-.272 11.875-2.624 11.875-2.452 0-2.625-1.232-2.625-18.703Zm16.479 14.597c-1.316-2.645-2.043-8.183-2.043-15.567 0-10.182.386-11.89 3.458-15.291 4.132-4.575 6.773-4.81 10.685-.953 2.163 2.132 2.917 4.731 2.917 10.049 0 6.955-.149 7.19-4.921 7.746-4.469.52-4.921 1.068-4.921 5.961 0 2.963.738 5.734 1.64 6.157.962.452 1.64-.821 1.64-3.078 0-2.874.832-3.849 3.281-3.849 2.549 0 3.281.948 3.281 4.249 0 6.07-2.426 8.682-8.062 8.682-3.589 0-5.463-1.106-6.955-4.106Zm8.455-23.603c0-2.052-.874-3.694-1.968-3.694-1.094 0-1.969 1.642-1.969 3.694 0 2.053.875 3.695 1.969 3.695s1.968-1.642 1.968-3.695Zm11.765 23.892c-1.643-4.321-1.634-24.137.014-30.237 1.362-5.044 4.999-6.244 7.644-2.522 1.225 1.725 1.575.493 1.575-5.541 0-7.044.302-7.759 3.28-7.759h3.281v49.572l-7.264-.091c-5.612-.071-7.552-.85-8.53-3.422Zm9.889-15.605c0-8.597-.438-11.058-1.969-11.058-1.501 0-2.062 2.778-2.362 11.699-.35 10.428-.137 11.629 1.969 11.058 1.961-.532 2.362-2.519 2.362-11.699Zm9.842.949v-18.472H176v36.945h-6.562Zm0-27.708c0-2.709.875-3.695 3.281-3.695s3.281.986 3.281 3.695c0 2.709-.875 3.694-3.281 3.694s-3.281-.985-3.281-3.694ZM53.604 92.027c-2.707-1.996-4.101-5.48-6.241-15.591-2.753-13.016-6.202-20.187-9.707-20.187-3.829 0-6.012 2.374-6.012 6.539 0 5.735 4.584 7.812 7.906 3.58 2.351-2.995 2.51-2.913 3.335 1.717 1.225 6.871-1.614 15.167-6.083 17.773-7.706 4.493-16.244-1.445-19.507-13.566-2.032-7.551-1.742-12.033 1.364-21.063 6.459-18.783 27.275-20.448 36.351-2.909l2.657 5.133 2.86-5.119c6.099-10.914 19.296-15.659 27.284-9.809 6.759 4.95 9.846 11.444 10.469 22.026.699 11.856-1.885 20.184-7.539 24.299-4.831 3.517-8.341 3.543-13.072.1-4.136-3.011-5.343-6.166-5.343-13.965 0-6.008 1.955-8.773 3.137-4.436.995 3.648 5.962 2.776 7.808-1.371 1.803-4.051-.985-8.929-5.105-8.929-3.098 0-8.465 7.726-8.465 12.187 0 1.349-1.205 6.986-2.678 12.527-3.153 11.862-7.489 15.438-13.419 11.064Zm9.709-19.615c3.626-16.285 8.143-23.552 14.64-23.552 6.335 0 11.439 6.049 11.413 13.527-.024 6.936-.931 9.18-4.901 12.123-2.139 1.585-3.676 1.644-5.578.211-3.151-2.374-3.375-1.321-.562 2.639 5.542 7.802 14.998-.778 14.998-13.609 0-5.614-.941-8.926-3.829-13.476-3.333-5.251-4.659-6.033-10.228-6.033-7.343 0-12.649 4.049-15.924 12.154-3.188 7.887-8.294 7.388-11.878-1.161-6.835-16.307-25.536-14.902-28.885 2.171-2.535 12.925 4.145 24.996 12.249 22.133 1.857-.656 3.377-2.065 3.377-3.13 0-1.111-1.146-1.425-2.689-.735-4.591 2.051-9.122-3.659-9.122-11.498 0-8.987 4.181-15.316 10.118-15.316 8.207 0 10.752 4.276 16.763 28.171 3.374 13.412 6.326 12.054 10.038-4.619Z"/></svg>

<svg
    xmlns="http://www.w3.org/2000/svg"
    viewBox="0 0 192 192"
    id="vector">
    <g id="group">
        <path
            id="path_6"
            d="M 57.89 132.694 L 57.89 109.388 L 61.408 110.335 C 63.342 110.855 65.952 110.379 67.207 109.276 C 68.905 107.783 70.03 107.904 71.61 109.749 C 73.335 111.765 73.661 115.364 73.357 129.034 L 72.982 145.84 L 68.061 145.629 C 63.485 145.434 63.14 145.79 63.14 150.709 C 63.14 154.768 62.529 156 60.515 156 C 58.029 156 57.89 154.768 57.89 132.694 Z M 67.077 127.214 C 67.077 118.31 66.637 115.257 65.436 115.815 C 64.42 116.287 63.647 120.918 63.405 127.976 C 63.086 137.27 63.389 139.375 65.045 139.375 C 66.673 139.375 67.077 136.959 67.077 127.214 Z M 22.457 135.08 C 22.457 127.546 21.32 118.69 19.255 110.143 L 16.052 96.888 L 19.952 96.888 C 22.27 96.888 24.101 98.012 24.467 99.659 C 26.482 108.739 26.746 108.975 28.081 102.892 C 29.165 97.953 30.063 96.888 33.146 96.888 C 35.207 96.888 36.893 97.67 36.893 98.626 C 36.893 99.581 35.417 106.124 33.612 113.165 C 31.578 121.101 30.331 129.92 30.331 136.366 C 30.331 146.688 30.302 146.764 26.394 146.764 L 22.457 146.764 Z M 36.656 142.15 C 34.535 135.598 36.342 129.114 41.477 124.849 C 46.147 120.97 47.704 115.361 44.111 115.361 C 43.028 115.361 42.142 116.608 42.142 118.132 C 42.142 119.856 40.903 120.902 38.861 120.902 C 35.096 120.902 34.529 117.104 37.641 112.725 C 40.925 108.102 45.729 107.224 49.37 110.582 C 52.451 113.424 52.641 114.553 52.641 130.049 L 52.641 146.5 L 45.352 146.5 C 38.971 146.5 37.888 145.958 36.656 142.15 Z M 46.079 134.757 C 46.079 131.201 45.5 128.291 44.792 128.291 C 43.165 128.291 41.609 136.666 42.752 139.27 C 44.484 143.214 46.079 141.05 46.079 134.757 Z M 78.887 128.291 C 78.887 111.051 79.062 109.819 81.512 109.819 C 83.962 109.819 84.137 111.051 84.137 128.291 C 84.137 145.532 83.962 146.764 81.512 146.764 C 79.062 146.764 78.887 145.532 78.887 128.291 Z M 89.386 121.826 L 89.386 96.888 L 92.592 96.888 C 95.42 96.888 95.847 97.811 96.226 104.739 L 96.656 112.59 L 99.069 104.739 C 100.944 98.638 102.182 96.888 104.62 96.888 C 108.441 96.888 108.521 98.627 105.134 107.972 C 101.88 116.951 101.86 120.165 104.994 130.366 C 109.558 145.219 109.651 146.764 105.987 146.764 C 103.332 146.764 102.308 145.221 100.471 138.451 C 99.231 133.879 97.706 130.139 97.082 130.139 C 96.458 130.139 95.948 133.879 95.948 138.451 C 95.948 146.086 95.68 146.764 92.667 146.764 L 89.386 146.764 Z M 113.008 128.061 L 113.008 109.357 L 116.894 110.451 C 119.032 111.053 121.133 110.741 121.565 109.759 C 123.035 106.409 124.819 107.961 124.819 112.59 C 124.819 115.13 124.271 117.208 123.6 117.208 C 120.141 117.208 118.257 123.442 118.257 134.889 C 118.257 145.532 117.985 146.764 115.633 146.764 C 113.181 146.764 113.008 145.532 113.008 128.061 Z M 129.487 142.658 C 128.171 140.013 127.444 134.475 127.444 127.091 C 127.444 116.909 127.83 115.201 130.902 111.8 C 135.034 107.225 137.675 106.99 141.587 110.847 C 143.75 112.979 144.504 115.578 144.504 120.896 C 144.504 127.851 144.355 128.086 139.583 128.642 C 135.114 129.162 134.662 129.71 134.662 134.603 C 134.662 137.566 135.4 140.337 136.302 140.76 C 137.264 141.212 137.942 139.939 137.942 137.682 C 137.942 134.808 138.774 133.833 141.223 133.833 C 143.772 133.833 144.504 134.781 144.504 138.082 C 144.504 144.152 142.078 146.764 136.442 146.764 C 132.853 146.764 130.979 145.658 129.487 142.658 Z M 137.942 119.055 C 137.942 117.003 137.068 115.361 135.974 115.361 C 134.88 115.361 134.005 117.003 134.005 119.055 C 134.005 121.108 134.88 122.75 135.974 122.75 C 137.068 122.75 137.942 121.108 137.942 119.055 Z M 149.707 142.947 C 148.064 138.626 148.073 118.81 149.721 112.71 C 151.083 107.666 154.72 106.466 157.365 110.188 C 158.59 111.913 158.94 110.681 158.94 104.647 C 158.94 97.603 159.242 96.888 162.22 96.888 L 165.501 96.888 L 165.501 146.46 L 158.237 146.369 C 152.625 146.298 150.685 145.519 149.707 142.947 Z M 159.596 127.342 C 159.596 118.745 159.158 116.284 157.627 116.284 C 156.126 116.284 155.565 119.062 155.265 127.983 C 154.915 138.411 155.128 139.612 157.234 139.041 C 159.195 138.509 159.596 136.522 159.596 127.342 Z M 169.438 128.291 L 169.438 109.819 L 176 109.819 L 176 146.764 L 169.438 146.764 Z M 169.438 100.583 C 169.438 97.874 170.313 96.888 172.719 96.888 C 175.125 96.888 176 97.874 176 100.583 C 176 103.292 175.125 104.277 172.719 104.277 C 170.313 104.277 169.438 103.292 169.438 100.583 Z M 53.604 92.027 C 50.897 90.031 49.503 86.547 47.363 76.436 C 44.61 63.42 41.161 56.249 37.656 56.249 C 33.827 56.249 31.644 58.623 31.644 62.788 C 31.644 68.523 36.228 70.6 39.55 66.368 C 41.901 63.373 42.06 63.455 42.885 68.085 C 44.11 74.956 41.271 83.252 36.802 85.858 C 29.096 90.351 20.558 84.413 17.295 72.292 C 15.263 64.741 15.553 60.259 18.659 51.229 C 25.118 32.446 45.934 30.781 55.01 48.32 L 57.667 53.453 L 60.527 48.334 C 66.626 37.42 79.823 32.675 87.811 38.525 C 94.57 43.475 97.657 49.969 98.28 60.551 C 98.979 72.407 96.395 80.735 90.741 84.85 C 85.91 88.367 82.4 88.393 77.669 84.95 C 73.533 81.939 72.326 78.784 72.326 70.985 C 72.326 64.977 74.281 62.212 75.463 66.549 C 76.458 70.197 81.425 69.325 83.271 65.178 C 85.074 61.127 82.286 56.249 78.166 56.249 C 75.068 56.249 69.701 63.975 69.701 68.436 C 69.701 69.785 68.496 75.422 67.023 80.963 C 63.87 92.825 59.534 96.401 53.604 92.027 Z M 63.313 72.412 C 66.939 56.127 71.456 48.86 77.953 48.86 C 84.288 48.86 89.392 54.909 89.366 62.387 C 89.342 69.323 88.435 71.567 84.465 74.51 C 82.326 76.095 80.789 76.154 78.887 74.721 C 75.736 72.347 75.512 73.4 78.325 77.36 C 83.867 85.162 93.323 76.582 93.323 63.751 C 93.323 58.137 92.382 54.825 89.494 50.275 C 86.161 45.024 84.835 44.242 79.266 44.242 C 71.923 44.242 66.617 48.291 63.342 56.396 C 60.154 64.283 55.048 63.784 51.464 55.235 C 44.629 38.928 25.928 40.333 22.579 57.406 C 20.044 70.331 26.724 82.402 34.828 79.539 C 36.685 78.883 38.205 77.474 38.205 76.409 C 38.205 75.298 37.059 74.984 35.516 75.674 C 30.925 77.725 26.394 72.015 26.394 64.176 C 26.394 55.189 30.575 48.86 36.512 48.86 C 44.719 48.86 47.264 53.136 53.275 77.031 C 56.649 90.443 59.601 89.085 63.313 72.412 Z"
            fill="#000000"
            stroke-width="12"/>
    </g>
</svg>
